packages/astro-components-stencil/src/icons/bluetooth.svg

<svg width="24" height="24" viewBox="0 0 24 24" fill="none" xmlns="http://www.w3.org/2000/svg">
<path fill-rule="evenodd" clip-rule="evenodd" d="M17 7.00005L12.71 2.71005C12.08 2.08005 11 2.52005 11 3.41005V9.59005L7.10997 5.70005C6.71997 5.31005 6.08997 5.31005 5.69997 5.70005C5.30997 6.09005 5.30997 6.72005 5.69997 7.11005L10.59 12.0001L5.69997 16.8901C5.30997 17.2801 5.30997 17.9101 5.69997 18.3001C6.08997 18.6901 6.71997 18.6901 7.10997 18.3001L11 14.4101V20.5901C11 21.4801 12.08 21.93 12.71 21.3001L17 17.0001C17.39 16.6101 17.39 15.9801 17 15.5901L13.41 12.0001L17 8.42005C17.39 8.03005 17.39 7.39005 17 7.00005ZM13 5.83005L14.88 7.71005L13 9.59005V5.83005ZM13 18.1701L14.88 16.2901L13 14.4101V18.1701Z" fill="black"/>
</svg>

<svg xmlns="http://www.w3.org/2000/svg" viewBox="0 0 24 24"><g xmlns="http://www.w3.org/2000/svg" id="bluetooth" fill-rule="nonzero">
            <path d="M17 7l-4.29-4.29c-.63-.63-1.71-.19-1.71.7v6.18L7.11 5.7A.996.996 0 105.7 7.11L10.59 12 5.7 16.89a.996.996 0 101.41 1.41L11 14.41v6.18c0 .89 1.08 1.34 1.71.71L17 17a.996.996 0 000-1.41L13.41 12 17 8.42c.39-.39.39-1.03 0-1.42zm-4-1.17l1.88 1.88L13 9.59V5.83zm1.88 10.46L13 18.17v-3.76l1.88 1.88z"/>
        </g></svg>
